X: 42429
T: West Of The Corrib
R: reel
M: 4/4
K: Edorian
BE~E2 EFGA|Beed efge|fd~d2 eB~B2|dBAd BAFA|
BE~E2 EFGA|Beed efge|fd~d2 Adaf|geed e~e2d:|
|:Beed efge|fd~d2 Adaf|~g2bg fgaf|geed e~e2d|
Beed efge|fd~d2 Adaf|~g2bg fgaf|geed e~e2d:|

